X: 20592
M: 6/8
L: 1/8
K: G
|: d |\
g2d g2d | gab g2d | e2d e2d | fga f2d |\
g2d g2d | gab g2d | gfe dBd | b2a g2 :|


